X:9
T:Fanny Power
Z: id:dc-ocarolan-6
M:3/4
L:1/8
K:G Major
D2|G4 D2|G2 A2 B2|c4 B2|A4 G2|G2 F2 E2|D2 E2 D2|F4 G2|A4 c2|!
B2 A2 G2|B2 c2 d2|e4 A2|A4 G2|G2 F2 E2|D2 G2 F2|G6|G4|]!
B2|d2 Bc d2|d2 Bc d2|G2 B2 G2|G2 B2 G2|e2 cd e2|e2 cd e2|A2 c2 A2|A2 c2 A2|!
B2 c2 d2|e2 f2 g2|f2 g2 a2|d4 c2|B4 G2|A2 B2 A2|G6|G4|]!

